X:1094
M:6/8
L:1/8
Q:3/8=104
K:D Minor
  a>gf e2e/>e/|f>ed   ^c2c/>c/|dAG   F2d/>^c/|d2A/>F/ D2 f/>g/|
  a>gf e2e/>e/|f>ed   ^c2c/>c/|dAG   F2d/>^c/|d2A/>F/ D2     |]

